X: 247
T:Miss Grant's Reel -- of Cullen House
B:William Marshall's Scottish Airs, Melodies, Strathspeys, Reels &c (1822)
C:William Marshall
L:1/8
M:C|
O:Scotland
R:Reel
Z:Clark Bernst + Richard Robinson
%%Page:49 - 2
F:http://richardrobinson.tunebook.org.uk/tune/4090
%%TBL:{"version":1,"type":"tune","id":"4090"}
K:F
%%staves {1 2}
V:1
F | \
(cd)cB (Ac)fe | dcBA GABd | (cd)cB (Ac)ag | fdcA {E}F2 F [|
B | \
AcFc AcFA | GABc dcdf | AcFc AcFA | BGcE {E}~F2 (FB) |
AcFc AcFA | GABc dcde | fa!trill!ge fdcA | BGcE {E}~F2 F |]
V:2 middle=d clef=bass
L:1/4
z/ | ffff | bagg | fffa |bc'ff/ :| \
z/ | fffa | gg[gb][gb] | [fa]ffa | bc'ff | ffff | gg[gb][gb] | [fa]baf | bc'ff/ |]

